svg/Octicons/megaphone.svg

<svg xmlns="http://www.w3.org/2000/svg" viewBox="0 0 1024 1024"><path d="m832 32c-130 0-124 130-704 128-70.66 0-128 114.62-128 256s57.34 256 128 256c22.781 0 43.19.5 64.19.875l63.812 287.12 192 32 64-96-45.12-203.12c242.5 36.25 266.87 107.12 365.12 107.12 106 0 192-172 192-384 0-212.03-86-384-192-384m-635 450.94c-39.19-1.469-82.19-2.25-127.56-2.625-3.438-19.719-5.438-41.41-5.438-64.31 0-88.37 28.688-192 64-192 39.03.125 75-.438 109-1.406-27.344 46.968-45 115.72-45 193.41 0 23.312 2.062 45.44 5 66.938m64.31 3c-3.187-22.25-5.312-45.563-5.312-69.938 0-79.5 18.438-149.5 46.906-196.22 155.16-8.312 251.91-28.469 319.03-50.19-28.312 66.876-45.937 152.06-45.937 246.41 0 40 3.875 78 9.5 114.31-72.16-18.687-172.69-35.718-324.19-44.37m570.69 218.06c-12.12 0-23.688-5.062-34.812-12.12-15.25-67.31-83.44-418.34 117.44-494.19 27.499 52.813 45.37 130.5 45.37 218.31 0 159-57.37 288-128 288"/></svg>

<svg height="1024" width="1024" xmlns="http://www.w3.org/2000/svg">
  <path d="M832 32c-130 0-124 130-704 128C57.344 160 0 274.625 0 416s57.344 256 128 256c22.781 0 43.188 0.5 64.188 0.875L256 960l192 32 64-96-45.125-203.125C709.375 729.125 733.75 800 832 800c106 0 192-172 192-384C1024 203.96900000000005 938 32 832 32zM197 482.938c-39.188-1.469-82.188-2.25-127.562-2.625C66 460.594 64 438.906 64 416c0-88.375 28.688-192 64-192 39.031 0.125 75-0.438 109-1.406C209.656 269.562 192 338.312 192 416 192 439.312 194.062 461.438 197 482.938zM261.312 485.938C258.125 463.688 256 440.375 256 416c0-79.5 18.438-149.5 46.906-196.219 155.156-8.312 251.906-28.469 319.031-50.188C593.625 236.46900000000005 576 321.656 576 416c0 40 3.875 78 9.5 114.312C513.344 511.625 412.812 494.594 261.312 485.938zM832 704c-12.125 0-23.688-5.062-34.812-12.125-15.25-67.312-83.438-418.344 117.438-494.188C942.125 250.5 960 328.188 960 416 960 575 902.625 704 832 704z" />
</svg>
